X:1
T:Vintertröst
T:Alice Tegnér (19864-1943)
T:Text: A T Gellerstedt
T:Vintertröst
T:©PA Aglert Edition may be freely distributed, duplicated, performed and recorded
T:©PA Aglert Edition may be freely distributed, duplicated, performed and recorded
C:Alice Tegnér (19864-1943)
Z:©PA Aglert
Z:Edition may be freely distributed, duplicated, performed and recorded
%%score [ 1 2 3 4 ]
L:1/8
Q:1/4=99
M:4/4
K:B
V:1 treble nm="S"
V:2 treble nm="A"
V:3 treble-8 nm="T"
V:4 bass nm="B"
V:1
"^Con tenerezza"!mf! F | B3 B !>!A2 F2 | G2 G2 z2 G2 | G3 F!<(! G2 (AB)!<)! | d3!>(! c!>)! A2 z2 | %5
w: Be-|håll i kär- ligt|min- ne de|sis- ta sol- skens- *|glim- tar- na|
 F2 (FB)!>(! B3!>)! D | D4 z2!p! D2 | E2!<(! ^E2!<)! !courtesy!^A3!>(! G!>)! | F6 z2 | %9
w: från en _ svun- nen|höst en|svun- nen, so- lig|höst.|
 !>!c4 BG B>A | A2 F2 z2 F2 |!ppp! G>G G2!<(! z2 G2!<)! |!f! e2 Ad c>!>(!A!>)! F2 | %13
w: Tro i ditt stil- la|sin- ne på|vår'n i- gen, på|vå- ren och fin- kar- na,|
!mp! F2 F!<(!F!<)! B3!>(! E!>)! | (D4!pp! F4) | %15
w: då har du vin- ter-|tröst, _|
!<(! (A4!<)!"^rit.""^rit.""^rit.""^rit." G2)!>(! F2!>)! | F8 |] %17
w: vin- * ter-|tröst.|
V:2
!mf! F | F3 F !>!F2 F2 | E2 E2 z2 E2 | E3 E!<(! E2 E2!<)! | E3!>(! E!>)! E2 z2 | %5
w: Be-|håll i kär- ligt|min- ne de|sis- ta sol- skens-|glim- tar- na|
 D2 D2!>(! D3!>)! B, | B,4 z2!p! B,2 | B,2!<(! B,2!<)! ^E3!>(! E!>)! | F6 z2 | !>!A4 FD F>F | %10
w: från en svun- nen|höst en|svun- nen, so- lig|höst.|Tro i ditt stil- la|
 F2 C2 z2 C2 |!ppp! E>E E2!<(! z2 E2!<)! |!f! E2 FA A>!>(!F!>)! E2 | %13
w: sin- ne på|vår'n i- gen, på|vå- ren och fin- kar- na,|
!mp! D2 D!<(!D!<)! E3!>(! E!>)! | D8!pp! |!<(! E6!<)!!>(! E2!>)! | D8 |] %17
w: då har du vin- ter-|tröst,|vin- ter-|tröst.|
V:3
!mf! d | d3 d !>!d2 d2 | e2 e2 z2 B2 | c3 c!<(! c2 (cB)!<)! | A3!>(! A!>)! c2 z2 | %5
w: Be-|håll i kär- ligt|min- ne de|sis- ta sol- skens- *|glim- tar- na|
 B2 B2!>(! B3!>)! B | B4 z2!p! G2 | G2!<(! G2!<)! c3!>(! B!>)! | A6 z2 | !>!e4 dB d>c | %10
w: från en svun- nen|höst en|svun- nen, so- lig|höst.|Tro i ditt stil- la|
 c2 A2 z2 A2 |!ppp! B>B B2!<(! z2 B2!<)! |!f! A2 cf e>!>(!c!>)! A2 | %13
w: sin- ne på|vår'n i- gen, på|vå- ren och fin- kar- na,|
!mp! B2 B!<(!B!<)! B3!>(! B!>)! | B8!pp! |!<(! (F2!<)! A4)!>(! A2!>)! | B8 |] %17
w: då har du vin- ter-|tröst,|vin- * ter-|tröst.|
V:4
!mf! B, | B,3 B, !>!B,2 B,2 | B,2 B,2 z2 B,2 | A,3 A,!<(! G,2 G,2!<)! | F,3!>(! F,!>)! F,2 z2 | %5
w: Be-|håll i kär- ligt|min- ne de|sis- ta sol- skens-|glim- tar- na|
 (B,A,)(G,F,)!>(! =G,3!>)! G, | !courtesy!^G,4 G,2!p! D,2 | C,4!<)!!<(! C,4 |!>(! F,6 z2!>)! | %9
w: från _ en _ svun- nen|höst från en|svun- nen|höst.|
 !>!F,4 F,F, F,>F, | F,2 F,2 z2 F,2 |!ppp! E,>E, E,2!<(! z2 C,2!<)! | %12
w: Tro i ditt stil- la|sin- ne på|vår'n i- gen, på|
!f! F,2 F,F, F,>!>(!F,!>)! F,2 |!mp! B,2 =A,!<(!A,!<)! (G,2 =G,)!>(!G,!>)! | (F,4!pp! D,4) | %15
w: vå- ren och fin- kar- na,|då har du vin- * ter-|tröst, _|
!<(! C,6!<)!!>(! F,2!>)! | B,,8 |] %17
w: vin- ter-|tröst.|

